dist/images/nav-setting.svg

<svg width="24" height="24" viewBox="0 0 24 24" fill="none" xmlns="http://www.w3.org/2000/svg">
<g clip-path="url(#clip0_2828_13)">
<path d="M23.4656 9.96563L20.6578 9.27656C20.5031 8.78437 20.3062 8.30625 20.0672 7.84219L21.5016 5.45156C21.6703 5.17031 21.6281 4.81875 21.4031 4.59375L19.4062 2.59688C19.1812 2.37188 18.8297 2.32969 18.5484 2.49844L16.1578 3.93281C15.6938 3.69375 15.2156 3.49688 14.7234 3.34219L14.0484 0.534375C13.9641 0.225 13.6828 0 13.3594 0H10.5469C10.2234 0 9.94219 0.225 9.85781 0.534375L9.18281 3.34219C8.69062 3.49688 8.2125 3.69375 7.74844 3.93281L5.35781 2.49844C5.07656 2.32969 4.725 2.37188 4.5 2.59688L2.50313 4.59375C2.27813 4.81875 2.23594 5.17031 2.40469 5.45156L3.83906 7.84219C3.6 8.30625 3.40313 8.78437 3.24844 9.27656L0.534375 9.96563C0.225 10.0359 0 10.3172 0 10.6406V13.4531C0 13.7766 0.225 14.0578 0.534375 14.1281L3.24844 14.8172C3.40313 15.3094 3.6 15.7875 3.83906 16.2516L2.40469 18.6422C2.23594 18.9234 2.27813 19.275 2.50313 19.5L4.5 21.4969C4.725 21.7219 5.07656 21.7641 5.35781 21.5953L7.74844 20.1609C8.2125 20.4 8.69062 20.5969 9.18281 20.7516L9.85781 23.4656C9.94219 23.775 10.2234 24 10.5469 24H13.3594C13.6828 24 13.9641 23.775 14.0484 23.4656L14.7234 20.7516C15.2156 20.5969 15.6938 20.4 16.1578 20.1609L18.5484 21.5953C18.8297 21.7641 19.1812 21.7219 19.4062 21.4969L21.4031 19.5C21.6281 19.275 21.6703 18.9234 21.5016 18.6422L20.0672 16.2516C20.3062 15.7875 20.5031 15.3094 20.6578 14.8172L23.4656 14.1281C23.775 14.0578 24 13.7766 24 13.4531V10.6406C24 10.3172 23.775 10.0359 23.4656 9.96563ZM11.9531 15.5625C10.0125 15.5625 8.4375 13.9875 8.4375 12.0469C8.4375 10.1062 10.0125 8.53125 11.9531 8.53125C13.8938 8.53125 15.4688 10.1062 15.4688 12.0469C15.4688 13.9875 13.8938 15.5625 11.9531 15.5625Z" fill="#D5DFF2"/>
</g>
<defs>
<clipPath id="clip0_2828_13">
<rect width="24" height="24" fill="white"/>
</clipPath>
</defs>
</svg>

<svg width="24" height="24" fill="none" xmlns="http://www.w3.org/2000/svg"><g clip-path="url(#clip0_2828_13)"><path d="M23.466 9.966l-2.808-.69a9.063 9.063 0 00-.59-1.434l1.434-2.39a.7.7 0 00-.099-.858l-1.997-1.997a.7.7 0 00-.858-.099l-2.39 1.435a9.054 9.054 0 00-1.435-.59l-.675-2.81A.721.721 0 0013.36 0h-2.812a.722.722 0 00-.69.534l-.674 2.808c-.492.155-.97.352-1.435.59l-2.39-1.434a.7.7 0 00-.858.099L2.503 4.594a.7.7 0 00-.098.858l1.434 2.39a8.968 8.968 0 00-.59 1.435l-2.715.689A.693.693 0 000 10.64v2.812c0 .324.225.605.534.675l2.714.69c.155.491.352.97.591 1.434l-1.434 2.39a.7.7 0 00.098.858L4.5 21.497a.7.7 0 00.858.098l2.39-1.434c.465.239.943.436 1.435.59l.675 2.715a.72.72 0 00.689.534h2.812a.721.721 0 00.69-.534l.674-2.714c.493-.155.97-.352 1.435-.591l2.39 1.434a.7.7 0 00.858-.098l1.997-1.997a.7.7 0 00.099-.858l-1.435-2.39c.24-.464.436-.943.59-1.435l2.809-.689a.693.693 0 00.534-.675v-2.812a.693.693 0 00-.534-.675zm-11.513 5.597a3.517 3.517 0 01-3.515-3.516 3.517 3.517 0 017.03 0 3.517 3.517 0 01-3.515 3.515z" fill="#D5DFF2"/></g><defs><clipPath id="clip0_2828_13"><path fill="#fff" d="M0 0h24v24H0z"/></clipPath></defs></svg>
